voiceMemo/Assets.xcassets/MemoList/trash.imageset/trash.svg

<svg width="50" height="50" viewBox="0 0 50 50" fill="none" xmlns="http://www.w3.org/2000/svg">
<path d="M20.3846 20.0876H22.2308V33.1148H20.3846V20.0876Z" fill="#D9D9D9"/>
<path d="M24.0769 20.0876H25.9231V33.1148H24.0769V20.0876Z" fill="#D9D9D9"/>
<path d="M27.7693 20.0876H29.6154V33.1148H27.7693V20.0876Z" fill="#D9D9D9"/>
<path d="M13 15.2024H37V16.8308H13V15.2024Z" fill="#D9D9D9"/>
<path d="M29.5539 16.0167H27.8308V14.3883C27.8308 13.8998 27.4 13.5198 26.8462 13.5198H23.1539C22.6 13.5198 22.1692 13.8998 22.1692 14.3883V16.0167H20.4462V14.3883C20.4462 13.0856 21.6769 12 23.1539 12H26.8462C28.3231 12 29.5539 13.0856 29.5539 14.3883V16.0167Z" fill="#D9D9D9"/>
<path d="M30.5387 38H19.4618C17.9849 38 16.6926 36.9144 16.5695 35.6117L14.8464 16.071L16.6926 15.9624L18.4157 35.5031C18.4772 35.9916 18.9695 36.3716 19.4618 36.3716H30.5387C31.0926 36.3716 31.5849 35.9374 31.5849 35.5031L33.308 15.9624L35.1541 16.071L33.431 35.6117C33.308 36.9687 32.0157 38 30.5387 38Z" fill="#D9D9D9"/>
</svg>

<?xml version="1.0"?>
<svg width="50" height="50" xmlns="http://www.w3.org/2000/svg" xmlns:svg="http://www.w3.org/2000/svg">
 <g class="layer">
  <title>Layer 1</title>
  <path d="m20.38,20.09l1.85,0l0,13.02l-1.85,0l0,-13.02z" fill="#151515" id="svg_1"/>
  <path d="m24.08,20.09l1.84,0l0,13.02l-1.84,0l0,-13.02z" fill="#151515" id="svg_2"/>
  <path d="m27.77,20.09l1.85,0l0,13.02l-1.85,0l0,-13.02z" fill="#151515" id="svg_3"/>
  <path d="m13,15.2l24,0l0,1.63l-24,0l0,-1.63z" fill="#151515" id="svg_4"/>
  <path d="m29.55,16.02l-1.72,0l0,-1.63c0,-0.49 -0.43,-0.87 -0.98,-0.87l-3.7,0c-0.55,0 -0.98,0.38 -0.98,0.87l0,1.63l-1.72,0l0,-1.63c0,-1.3 1.23,-2.39 2.7,-2.39l3.7,0c1.47,0 2.7,1.09 2.7,2.39l0,1.63z" fill="#151515" id="svg_5"/>
  <path d="m30.54,38l-11.08,0c-1.48,0 -2.77,-1.09 -2.89,-2.39l-1.72,-19.54l1.84,-0.11l1.73,19.54c0.06,0.49 0.55,0.87 1.04,0.87l11.08,0c0.55,0 1.04,-0.43 1.04,-0.87l1.73,-19.54l1.84,0.11l-1.72,19.54c-0.12,1.36 -1.41,2.39 -2.89,2.39z" fill="#151515" id="svg_6"/>
 </g>
</svg>
